src/48x48/places/folder-gruvbox-material-blue-backup.svg

<svg xmlns="http://www.w3.org/2000/svg" width="48" height="48" version="1">
 <rect style="opacity:0.2" width="40" height="26" x="4" y="17" rx="2" ry="2"/>
 <path style="fill:#45707a" d="M 4,34 C 4,35.108 4.892,36 6,36 H 42 C 43.108,36 44,35.108 44,34 V 12 C 44,10.892 43.108,10 42,10 H 24 C 21,10 20,6 17,6 H 6 C 4.892,6 4,6.892 4,8"/>
 <rect style="opacity:0.2" width="40" height="26" x="4" y="15" rx="2" ry="2"/>
 <rect style="fill:#d9e1cc" width="36" height="16" x="6" y="13" rx="2" ry="2"/>
 <rect style="fill:#7daea3" width="40" height="26" x="4" y="16" rx="2" ry="2"/>
 <path style="opacity:0.1;fill:#d9e1cc" d="M 6,6 C 4.892,6 4,6.892 4,8 V 9 C 4,7.892 4.892,7 6,7 H 17 C 20,7 21,11 24,11 H 42 C 43.108,11 44,11.892 44,13 V 12 C 44,10.892 43.108,10 42,10 H 24 C 21,10 20,6 17,6 Z"/>
 <path style="fill:#404946" d="m24.464794 22.015626c-0.75501-0.05084-1.52681 0.02146-2.28711 0.226563-3.0412 0.820392-5.166593 3.58253-5.177734 6.732421a1.0001 1.0001 0 0 0 0.002 0.02539h-1.00195l2 2 2-2h-1a1.0001 1.0001 0 0 0 0 -0.01758c0.008-2.258041 1.517139-4.222437 3.697266-4.810547 2.180126-0.58811 4.472713 0.351145 5.615234 2.298828 1.142521 1.947684 0.842814 4.405532-0.734375 6.021485-1.53625 1.574006-4.08172 1.748333-6.09375 0.632812a1.0001221 1.0001221 0 1 0 -0.96875 1.75c2.717652 1.506737 6.253078 1.309813 8.494141-0.986328 2.200122-2.254196 2.62112-5.712738 1.027343-8.429688-1.195332-2.037712-3.307237-3.290847-5.572265-3.443359zm-0.480469 2.970703a1.0001 1.0001 0 0 0 -0.984375 1.013672v2.863281a1.0001 1.0001 0 0 0 0.06445 0.498047 1.0001 1.0001 0 0 0 0.332031 0.449219l1.896485 1.896484a1.0001 1.0001 0 1 0 1.414062 -1.414062l-1.707031-1.707031v-2.585938a1.0001 1.0001 0 0 0 -1.015625 -1.013672z"/>
</svg>

<?xml version="1.0" encoding="UTF-8"?>
<svg width="48" height="48" version="1" xmlns="http://www.w3.org/2000/svg">
 <rect x="4" y="17" width="40" height="26" rx="2" ry="2" opacity=".2"/>
 <path d="m4 34c0 1.108 0.892 2 2 2h36c1.108 0 2-0.892 2-2v-22c0-1.108-0.892-2-2-2h-18c-3 0-4-4-7-4h-11c-1.108 0-2 0.892-2 2" fill="#45707a"/>
 <rect x="4" y="15" width="40" height="26" rx="2" ry="2" opacity=".2"/>
 <rect x="6" y="13" width="36" height="16" rx="2" ry="2" fill="#d9e1cc"/>
 <rect x="4" y="16" width="40" height="26" rx="2" ry="2" fill="#7daea3"/>
 <path d="m6 6c-1.108 0-2 0.892-2 2v1c0-1.108 0.892-2 2-2h11c3 0 4 4 7 4h18c1.108 0 2 0.892 2 2v-1c0-1.108-0.892-2-2-2h-18c-3 0-4-4-7-4z" fill="#d9e1cc" opacity=".1"/>
 <path d="m24.465 22.016c-0.75501-0.05084-1.5268 0.02146-2.2871 0.22656-3.0412 0.82039-5.1666 3.5825-5.1777 6.7324a1.0001 1.0001 0 0 0 2e-3 0.02539h-1.002l2 2 2-2h-1a1.0001 1.0001 0 0 0 0-0.01758c8e-3 -2.258 1.5171-4.2224 3.6973-4.8105 2.1801-0.58811 4.4727 0.35114 5.6152 2.2988 1.1425 1.9477 0.84281 4.4055-0.73438 6.0215-1.5362 1.574-4.0817 1.7483-6.0938 0.63281a1.0001 1.0001 0 1 0-0.96875 1.75c2.7177 1.5067 6.2531 1.3098 8.4941-0.98633 2.2001-2.2542 2.6211-5.7127 1.0273-8.4297-1.1953-2.0377-3.3072-3.2908-5.5723-3.4434zm-0.48047 2.9707a1.0001 1.0001 0 0 0-0.98438 1.0137v2.8633a1.0001 1.0001 0 0 0 0.06445 0.49805 1.0001 1.0001 0 0 0 0.33203 0.44922l1.8965 1.8965a1.0001 1.0001 0 1 0 1.4141-1.4141l-1.707-1.707v-2.5859a1.0001 1.0001 0 0 0-1.0156-1.0137z" fill="#404946"/>
</svg>
